!!!COM:	Josquin des Prez
!!!CDT:	~1450-1521/08/27
!!!OTL@@LAT: Victimae paschali laudes / D'ung aultre amer
!!!OTL2@@LAT: Dic nobis Maria
!!!AGN:	Motet
!!!SCT:	NJE 22.6
!!!SCA:	New Josquin Edition 22.6
!!!voices:	4
**kern	**kern	**kern	**kern
*staff4	*staff3	*staff2	*staff1
*Ivox	*Ivox	*Ivox	*Ivox
*I"Bassus	*I"Tenor	*I"Altus	*I"Superius
*I'B	*I'T	*I'A	*I'S
*clefF4	*clefGv2	*clefGv2	*clefG2
*k[b-]	*k[b-]	*k[b-]	*k[b-]
*M2/1	*M2/1	*M2/1	*M2/1
*met(C|)	*met(C|)	*met(C|)	*met(C|)
=1-	=1-	=1-	=1-
!	!	!	!LO:TX:Z=10:t=Superius by Ockeghem
0r	0G	0r	0g
=2	=2	=2	=2
0r	1F	0r	1a
.	1G	.	1g
=3	=3	=3	=3
0G	0B-	4G/	1.dd
.	.	4A/	.
.	.	4B-\	.
.	.	4c\	.
.	.	2.d\	.
.	.	.	4cc\
.	.	4e\	4b-\
=4	=4	=4	=4
[0F	[0c	2f\	1a
.	.	2F/	.
.	.	2.A/	1a
.	.	4B-\	.
=5	=5	=5	=5
1F]	1c]	2.c\	1a
.	.	4B-\	.
1G	1B-	2G/	[1dd
.	.	[2d\	.
=6	=6	=6	=6
1D	0A	4d\]	1dd]
.	.	4e\	.
.	.	1.f	.
1F	.	.	1cc
=7	=7	=7	=7
1.G	1G	4d\	1.b-
.	.	4c\	.
.	.	4B-\	.
.	.	4A/	.
.	[1d	2G/	.
4F\	.	[2B-\	4a/
4E\	.	.	4g/
=8	=8	=8	=8
1.D	2d\]	2B-\]	0f
.	2c\	4A/	.
.	.	4G/	.
.	1A	2F/	.
4C/	.	2D/	.
4BB-/	.	.	.
=9	=9	=9	=9
2AA/	2c\	2E/	1r
2GG/	2B-\	2G/	.
1D	1A	1D	1f
=10	=10	=10	=10
0GG	0G	1r	1g
.	.	[1d	1b-
=11	=11	=11	=11
0r	1r	1d]	0a
.	1D	1f	.
=12	=12	=12	=12
0r	2E/	1g	1.g
.	2F/	.	.
.	1G	1d	.
.	.	.	2f/
=13	=13	=13	=13
0r	1A	1c	2.e/
.	.	.	4d/
.	[1B-	1d	[1d
=14	=14	=14	=14
[0D	2B-\]	0d	1d]
.	4A/	.	.
.	4G/	.	.
.	1A	.	1d
=15	=15	=15	=15
1D]	1B-	0r	1d
[1C	2.c\	.	[1e
.	4B-\	.	.
=16	=16	=16	=16
0C]	4A/	1r	2e/]
.	4G/	.	.
.	1G	.	2d/
.	.	1c	1e
.	4F/	.	.
.	4E/	.	.
=17	=17	=17	=17
1.D	1D	2B-\	2f/
.	.	2A/	2d/
.	1r	2B-\	[1d
2C/	.	[2A/	.
=18	=18	=18	=18
1BB-	2r	2A/]	1d]
.	2D/	2G/	.
1AA	2E/	1A	1c
.	2F/	.	.
=19	=19	=19	=19
[0GG	0BB-	2D/	[0d
.	.	2.d\	.
.	.	4c\	.
.	.	4B-\	.
.	.	4A/	.
=20	=20	=20	=20
0GG]	0B-	2G/	0d]
.	.	4F/	.
.	.	4E/	.
.	.	2D/	.
.	.	2F/	.
=21	=21	=21	=21
0r	1c	2C/	0r
.	.	1c	.
.	2A/	.	.
.	[2B-\	[2d\	.
=22	=22	=22	=22
0r	4B-\]	2d\]	0b-
.	4A/	.	.
.	4G/	4c\	.
.	4F/	4d\	.
.	1G	4e-i\	.
.	.	4d\	.
.	.	4c\	.
.	.	4B-\	.
=23	=23	=23	=23
1r	1F	0A	1cc
1FF	1A	.	1cc
=24	=24	=24	=24
2.BB-/	1B-	[0D	0dd
4C/	.	.	.
2.D\	[1A	.	.
4E\	.	.	.
=25	=25	=25	=25
1F	1A]	1D]	1dd
1G	1G	1B-	1dd
=26	=26	=26	=26
1A	0r	2F/	2cc\
.	.	2.f\	1cc
1F	.	.	.
.	.	4e\	.
.	.	4d\	4b-\
.	.	4c\	4a/
=27	=27	=27	=27
1G	1.d	2B-\	1g
.	.	2G/	.
1D	.	1A	[1f
.	2e\	.	.
=28	=28	=28	=28
2r	1f	1D	2f/]
2D\	.	.	2d/
2E\	[1g	2r	1c
2C/	.	2c\	.
=29	=29	=29	=29
1G	1g]	2B-\	1.d
.	.	2.G/	.
2r	[1d	.	.
.	.	4A/	.
[2G\	.	4B-\	2B-/
.	.	4c\	.
=30	=30	=30	=30
1G]	1d]	2d\	1B-
.	.	2G/	.
1C	1c	1e-	1c
=31	=31	=31	=31
1G	1d	1d	1B-
2r	1d	1B-	[1b-
2D\	.	.	.
=32	=32	=32	=32
1E	0r	0c	2b-\]
.	.	.	4a/
.	.	.	4g/
1F	.	.	1a
=33	=33	=33	=33
1BB-	[0d	0B-	0b-
[1B-	.	.	.
=34	=34	=34	=34
2B-\]	1d]	1r	0r
4A\	.	.	.
4G\	.	.	.
1A	1c	1F	.
=35	=35	=35	=35
1B-	0d	1f	0b-
1BB-	.	2d\	.
.	.	[2f\	.
=36	=36	=36	=36
1F	0c	2f\]	1a
.	.	4e\	.
.	.	4d\	.
2r	.	2.c\	1a
2F\	.	.	.
.	.	4d\	.
=37	=37	=37	=37
1E-	1r	4e-i\	2g/
.	.	4d\	.
.	.	4c\	1cc
.	.	4B-\	.
1F	[1c	1A	.
.	.	.	2b-\
=38	=38	=38	=38
2r	2c\]	2r	2a/
1G	2B-\	2d\	2g/
.	1A	2e\	1a
2F\	.	2f\	.
=39	=39	=39	=39
0G	0G	2B-\	1b-
.	.	2.d\	.
.	.	.	1g
.	.	4c\	.
.	.	4B-\	.
.	.	4A/	.
=40	=40	=40	=40
2r	1B-	1G	1dd
2GG/	.	.	.
2AA/	1c	2E/	2cc\
2FF/	.	2F/	[2cc\
=41	=41	=41	=41
2C/	1G	2E/	2cc\]
2GG/	.	2G/	2b-\
2D\	2A/	2F/	2a/
2GG/	[2B-\	[2G/	2g/
=42	=42	=42	=42
1G	4B-\]	2G/]	1b-
.	4A/	.	.
.	4G/	2d\	.
.	4F/	.	.
2E-\	2G/	2e-i\	2g/
[2F\	2F/	[2c\	[2a/
=43	=43	=43	=43
4F\]	1.A	2c\]	4a/]
4E-i\	.	.	4g/
4D\	.	1d	4f/
4C/	.	.	4e/
2D\	.	.	2f/
2C/	4B-\	[2G/	2e/
.	4c\	.	.
=44	=44	=44	=44
1G	2B-\	4G/]	2d/
.	.	4A/	.
.	2G/	4B-\	1g
.	.	4c\	.
1D	1A	[1d	.
.	.	.	2f#i/
=45	=45	=45	=45
2BB-/	[0Gl	2d\]	[0gl
2GG/	.	2D/	.
2.C/	.	1E-i	.
4BB-/	.	.	.
=46	=46	=46	=46
0GGl	0G]	0Dl	0g]
!!LO:LB:i:g=z
=47||	=47||	=47||	=47||
!!section: Secunda pars: Dic nobis Maria
!!!OMD: Secunda pars: Doc nobis Maria
!	!	!	!LO:TX:Z=5:t=Superius by Hayne van Ghizeghem
1.D	0r	0r	0r
2E\	.	.	.
=48	=48	=48	=48
1F	0r	0r	0r
1G	.	.	.
=49	=49	=49	=49
2GG/	0r	1.D	0r
1BB-	.	.	.
2C/	.	2E/	.
=50	=50	=50	=50
1AA	0r	1F	0r
1GG	.	1G	.
=51	=51	=51	=51
2r	0r	1.B-	0r
1G	.	.	.
[2A\	.	[2c\	.
=52	=52	=52	=52
4A\]	0r	2c\]	0r
4G\	.	.	.
4F#i\	.	2B-\	.
4E\	.	.	.
1F#i	.	1A	.
=53	=53	=53	=53
1G	0r	0G	0r
1C	.	.	.
=54	=54	=54	=54
1.F	0r	1r	0r
.	.	1F	.
2E\	.	.	.
=55	=55	=55	=55
1D	0r	1B-	0r
1C	.	1A	.
=56	=56	=56	=56
1BB-	0r	1G	0r
1C	.	[1A	.
=57	=57	=57	=57
1D	0r	2A/]	0r
.	.	2G/	.
2BB-/	.	[1G	.
[2C/	.	.	.
=58	=58	=58	=58
4C/]	0r	1G]	0r
4BB-/	.	.	.
4AA/	.	.	.
4GG/	.	.	.
1AA	.	1F#i	.
=59	=59	=59	=59
0GG	1B-	0G	0g
.	1d	.	.
=60	=60	=60	=60
0r	1c	1C	1.g
.	1d	[1G	.
.	.	.	4f/
.	.	.	4e/
=61	=61	=61	=61
0r	1B-	1G]	1d
.	1c	1C	[1g
=62	=62	=62	=62
0r	2B-\	2G/	1g]
.	2G/	2E/	.
.	1A	1D	1f#i
=63	=63	=63	=63
0r	1G	1d	1g
.	1r	2c\	1g
.	.	[2B-\	.
=64	=64	=64	=64
0r	1G	2B-\]	1g
.	.	4A/	.
.	.	4G/	.
.	1c	1F	1a
=65	=65	=65	=65
0r	1B-	2r	1b-
.	.	2G/	.
.	2c\	2F/	2a/
.	2d\	2D/	2f/
=66	=66	=66	=66
0r	2B-\	1E	1g
.	2c\	.	.
.	2d\	1D	[1f
.	2B-\	.	.
=67	=67	=67	=67
0r	1A	0r	1f]
.	[1G	.	2g/
.	.	.	2f/
=68	=68	=68	=68
0r	0G]	0r	1e
.	.	.	[1d
=69	=69	=69	=69
0r	0r	1.D	1d]
.	.	.	2f/
.	.	2E/	2g/
=70	=70	=70	=70
0r	0r	1F	1a
.	.	1G	[1b-
=71	=71	=71	=71
0r	0r	1.B-	2b-\]
.	.	.	4a/
.	.	.	4g/
.	.	.	[1g
.	.	[2c\	.
=72	=72	=72	=72
0r	0r	2c\]	1g]
.	.	2B-\	.
.	.	1A	1f#i
=73	=73	=73	=73
0r	0r	0G	0g
=74	=74	=74	=74
0r	0r	1F	1r
.	.	[1B-	1g
=75	=75	=75	=75
0r	1B-	2B-\]	1b-
.	.	2A/	.
.	1d	1G	1b-
=76	=76	=76	=76
1r	1c	1A	1a
1D	1d	1F	1a
=77	=77	=77	=77
1E	1B-	2G/	1g
.	.	2.g\	.
1C	[1c	.	1g
.	.	4e\	.
.	.	2g\	.
=78	=78	=78	=78
1.F	2c\]	2f\	1.a
.	2B-\	4e\	.
.	.	4d\	.
.	1A	2c\	.
4E\	.	2d\	4g/
4D\	.	.	4f/
=79	=79	=79	=79
2E\	0G	2B-\	0e
2.C/	.	2.c\	.
4D\	.	4B-\	.
4E\	.	4G/	.
4F\	.	4A/	.
=80	=80	=80	=80
2G\	0r	2.B-\	2d/
1D	.	.	1f
.	.	4A/	.
.	.	2F/	.
4C/	.	2G/	4e/
4BB-/	.	.	4d/
=81	=81	=81	=81
1AA	1r	2A/	1c
.	.	1c	.
1GG	1G	.	1d
.	.	2Bni\	.
=82	=82	=82	=82
1r	1.c	1c	0e
[1C	.	2r	.
.	2B-\	[2G/	.
=83	=83	=83	=83
1C]	1c	2G/]	1c
.	.	2A/	.
1BB-	1d	1B-	1f
=84	=84	=84	=84
2C/	2c\	1G	2e/
2BB-/	2d\	.	2d/
1GG	2B-\	1r	[1d
.	[2G/	.	.
=85	=85	=85	=85
2r	2G/]	1d	1d]
2G\	2B-\	.	.
2A\	1A	1f	1c
2c\	.	.	.
=86	=86	=86	=86
2B-\	0G	1g	0d
1G	.	.	.
.	.	[1d	.
4F\	.	.	.
4E\	.	.	.
=87	=87	=87	=87
0D	0r	1d]	1r
.	.	1d	2f/
.	.	.	2g/
=88	=88	=88	=88
0r	0r	2c\	1.a
.	.	1d	.
.	.	2B-\	4g/
.	.	.	4f/
=89	=89	=89	=89
0r	1r	1c	1e
.	2r	1d	[1d
.	2d\	.	.
=90	=90	=90	=90
0r	1f	0r	1d]
.	1c	.	[1g
=91	=91	=91	=91
0r	2B-\	0r	1g]
.	2G/	.	.
.	1A	.	1f#i
=92	=92	=92	=92
1.GG	1G	1r	1.g
.	2r	[1D	.
[2BB-/	2F/	.	4f/
.	.	.	4e/
=93	=93	=93	=93
1BB-]	1B-	1D]	1d
2FF/	1A	[1F	[1c
[2F\	.	.	.
=94	=94	=94	=94
2F\]	1c	2F/]	1c]
2E\	.	2G/	.
1D	2d\	[1A	1f
.	[2d\	.	.
=95	=95	=95	=95
1AA	2d\]	1A]	1e
.	2c\	.	.
2BB-/	1B-	1D	[1d
2GG/	.	.	.
=96	=96	=96	=96
1D	1A	1F	1d]
1E	1G	2r	1c
.	.	2G/	.
=97	=97	=97	=97
2D\	0r	2A/	1d
1G	.	2B-\	.
.	.	2G/	1B-
4F\	.	2g\	.
4E\	.	.	.
=98	=98	=98	=98
4F\	0r	4a\	0A
4E\	.	4g\	.
4D\	.	4f#i\	.
4C/	.	4e\	.
1D	.	1f#i	.
=99	=99	=99	=99
0GG	1.d	0g	0G
.	2e\	.	.
=100	=100	=100	=100
1D	1f	1r	1r
2GG/	1g	[1d	1G
[2G\	.	.	.
=101	=101	=101	=101
2G\]	0d	2d\]	2B-/
4F\	.	2e\	2c/
4E\	.	.	.
1D	.	1f	1d
=102	=102	=102	=102
2E-\	1r	1g	1c
2C/	.	.	.
2D\	1d	1d	1f
2BB-/	.	.	.
=103	=103	=103	=103
2C/	1c	2G/	2e/
2AA/	.	2c\	2d/
2BB-/	1d	2B-\	[1d
2D\	.	[2A/	.
=104	=104	=104	=104
0AA	0e	2A/]	1d]
.	.	4G/	.
.	.	4F/	.
.	.	[1A	1c#i
=105	=105	=105	=105
[0D	1d	2A/]	0d
.	.	2B-\	.
.	1d	2A/	.
.	.	[2d\	.
=106	=106	=106	=106
0D]	1.f	2d\]	1r
.	.	4c\	.
.	.	4B-\	.
.	.	1A	1d
.	2e\	.	.
=107	=107	=107	=107
1r	1d	1D	2f/
.	.	.	2g/
[1F	[1c	2r	[1a
.	.	[2f\	.
=108	=108	=108	=108
0F]	2c\]	2f\]	1a]
.	2B-\	4e\	.
.	.	4d\	.
.	1A	2c\	2cc\
.	.	2f\	2a/
=109	=109	=109	=109
1G	1G	2d\	1.b-
.	.	1g	.
2E\	2r	.	.
2F\	2F/	2c\	4a/
.	.	.	4g/
=110	=110	=110	=110
1D	2B-\	4d\	1f
.	.	4e\	.
.	2A/	4f\	.
.	.	4d\	.
2r	[1c	1e	1g
2C/	.	.	.
=111	=111	=111	=111
1F	1c]	2r	1a
.	.	2.A/	.
1D	1d	.	1f
.	.	4G/	.
.	.	4A/	.
.	.	4B-\	.
=112	=112	=112	=112
2.G\	1d	2G/	2b-\
.	.	2.d\	2a/
4F\	.	.	.
2G\	2B-\	.	1g
.	.	4B-\	.
2C/	2c\	2e-i\	.
=113	=113	=113	=113
1D	0A	1d	0f
2r	.	2r	.
2D\	.	2d\	.
=114	=114	=114	=114
1E-i	1G	2B-\	1b-
.	.	2G/	.
1F	2r	1D	1a
.	2F/	.	.
=115	=115	=115	=115
1G	1B-	1d	1b-
2r	2r	2r	2cc\
2G\	2B-\	2d\	2b-\
=116	=116	=116	=116
1F	1c	2f\	2a/
.	.	2F/	2g/
1E-i	2r	2.B-\	[1g
.	2G/	.	.
.	.	4c\	.
=117	=117	=117	=117
0D	1A	1d	1g]
.	1A	2r	1f#i
.	.	[2D/	.
=118	=118	=118	=118
[0GGl	[0Gl	2D/]	[0gl
.	.	2E-i/	.
.	.	1D	.
=119	=119	=119	=119
0GG]	0G]	0Gl	0g]
==	==	==	==
*-	*-	*-	*-
!!!RDF**kern: l=long note in original notation
!!!RDF**kern: i=editorial accidental
!!!ENC:	Jesse Rodin; Victoria Chang 2011/05/21
!!!END:	2011/05/21/
!!!EED:	Jesse Rodin
!!!EEV:	2011/08/17/
!!attribution-level@Jos: 1 (secure)
!!!ONB:	Translated from MusicXML and edited on 2011/08/17/ by Craig Sapp
!!muse2ps: u^(2) @{OTL2}^C^@{COM}\n@{SCT}^I150v90,90,90,150c95i2I150Q16
